; generated by PrusaSlicer 2.2.0+win64 on 2020-11-14 at 12:33:45 UTC

; 

; external perimeters extrusion width = 0.45mm
; perimeters extrusion width = 0.45mm
; infill extrusion width = 0.45mm
; solid infill extrusion width = 0.45mm
; top infill extrusion width = 0.40mm
; first layer extrusion width = 0.42mm

M201 X500 Y500 Z100 E5000 ; sets maximum accelerations, mm/sec^2
M203 X500 Y500 Z10 E60 ; sets maximum feedrates, mm/sec
M204 P500 R1000 T500 ; sets acceleration (P, T) and retract acceleration (R), mm/sec^2
M205 X8.00 Y8.00 Z0.40 E5.00 ; sets the jerk limits, mm/sec
M205 S0 T0 ; sets the minimum extruding and travel feed rate, mm/sec
M107
G90 ; use absolute coordinates
M83 ; extruder relative mode
M104 S215 ; set extruder temp
M140 S70 ; set bed temp
M190 S70 ; wait for bed temp
M109 S215 ; wait for extruder temp
G28 ; home all
G1 Z2 F240
G1 X2 Y10 F3000
G1 Z0.28 F240
G92 E0.0
G1 Y190 E15.0 F1500.0 ; intro line
G1 X2.3 F5000
G1 Y10 E30 F1200.0 ; intro line
G92 E0.0
G21 ; set units to millimeters
G90 ; use absolute coordinates
M83 ; use relative distances for extrusion
; Filament gcode
;BEFORE_LAYER_CHANGE
;0.2


G1 E-5.00000 F3600.00000
G1 Z0.200 F9000.000
;AFTER_LAYER_CHANGE
;0.2
G1 X29.869 Y66.677
G1 E5.00000 F2400.00000
G1 F1200.000
G1 X30.883 Y66.268 E0.03428
G1 X31.994 Y66.123 E0.03512
G1 X188.004 Y66.123 E4.89159
G1 X188.926 Y66.226 E0.02909
G1 X189.422 Y66.370 E0.01621
G1 X190.245 Y66.743 E0.02833
G1 X191.080 Y67.390 E0.03310
G1 X191.668 Y68.120 E0.02941
G1 X191.917 Y68.564 E0.01597
G1 X192.239 Y69.409 E0.02833
G1 X192.376 Y70.414 E0.03179
G1 X192.377 Y151.534 E2.54348
G1 X192.284 Y152.158 E0.01977
G1 X192.033 Y152.732 E0.01965
G1 X191.640 Y153.220 E0.01965
G1 X191.130 Y153.591 E0.01977
G1 X190.585 Y153.804 E0.01835
G1 X190.005 Y153.877 E0.01835
G1 X29.985 Y153.877 E5.01732
G1 X29.357 Y153.788 E0.01989
G1 X28.778 Y153.539 E0.01977
G1 X28.282 Y153.143 E0.01989
G1 X27.909 Y152.630 E0.01989
G1 X27.696 Y152.085 E0.01835
G1 X27.623 Y151.509 E0.01823
G1 X27.624 Y70.447 E2.54164
G1 X27.778 Y69.344 E0.03491
G1 X28.225 Y68.284 E0.03606
G1 X28.925 Y67.385 E0.03571
G1 X29.821 Y66.713 E0.03513
G1 E-3.50000 F3600.00000
G1 F7200.000
G1 X30.883 Y66.268 E-0.54697
G1 X31.994 Y66.123 E-0.53202
G1 X32.722 Y66.123 E-0.34602
G1 E-0.07500 F3600.00000
G1 X188.059 Y144.745 F9000.000
G1 E5.00000 F2400.00000
G1 F1200.000
G1 X188.172 Y144.598 E0.00582
G1 X188.320 Y144.485 E0.00584
G1 X188.491 Y144.414 E0.00582
G1 X188.675 Y144.389 E0.00582
G1 X188.860 Y144.414 E0.00584
G1 X189.031 Y144.485 E0.00582
G1 X189.179 Y144.598 E0.00583
G1 X189.292 Y144.746 E0.00583
G1 X189.363 Y144.917 E0.00582
G1 X189.387 Y145.101 E0.00583
G1 X189.363 Y145.286 E0.00583
G1 X189.292 Y145.457 E0.00582
G1 X189.179 Y145.605 E0.00583
G1 X189.031 Y145.718 E0.00583
G1 X188.860 Y145.789 E0.00582
G1 X188.675 Y145.813 E0.00584
G1 X188.491 Y145.789 E0.00582
G1 X188.320 Y145.718 E0.00582
G1 X188.172 Y145.605 E0.00584
G1 X188.059 Y145.457 E0.00582
G1 X187.988 Y145.286 E0.00582
G1 X187.963 Y145.101 E0.00583
G1 X187.988 Y144.917 E0.00583
G1 X188.036 Y144.801 E0.00394
G1 X187.966 Y144.585 F9000.000
G1 E-3.50000 F3600.00000
G1 F7200.000
G1 X188.172 Y144.598 E-0.11596
G1 X188.320 Y144.485 E-0.08852
G1 X188.491 Y144.414 E-0.08816
G1 X188.675 Y144.389 E-0.08815
G1 X188.860 Y144.414 E-0.08853
G1 X189.031 Y144.485 E-0.08810
G1 X189.179 Y144.598 E-0.08833
G1 X189.292 Y144.746 E-0.08835
G1 X189.363 Y144.917 E-0.08813
G1 X189.387 Y145.101 E-0.08836
G1 X189.363 Y145.286 E-0.08836
G1 X189.292 Y145.457 E-0.08813
G1 X189.179 Y145.605 E-0.08836
G1 X189.031 Y145.718 E-0.08831
G1 X188.860 Y145.789 E-0.08810
G1 X188.707 Y145.809 E-0.07314
G1 E-0.07500 F3600.00000
G1 X188.385 Y74.053 F9000.000
G1 E5.00000 F2400.00000
G1 F1200.000
G1 X188.201 Y74.029 E0.00582
G1 X188.029 Y73.958 E0.00582
G1 X187.882 Y73.844 E0.00584
G1 X187.769 Y73.697 E0.00582
G1 X187.698 Y73.526 E0.00582
G1 X187.673 Y73.341 E0.00583
G1 X187.698 Y73.157 E0.00583
G1 X187.769 Y72.985 E0.00582
G1 X187.882 Y72.838 E0.00582
G1 X188.029 Y72.725 E0.00584
G1 X188.201 Y72.654 E0.00582
G1 X188.385 Y72.629 E0.00582
G1 X188.570 Y72.654 E0.00583
G1 X188.741 Y72.725 E0.00583
G1 X188.889 Y72.838 E0.00583
G1 X189.002 Y72.985 E0.00582
G1 X189.073 Y73.157 E0.00584
G1 X189.097 Y73.341 E0.00582
G1 X189.073 Y73.525 E0.00582
G1 X189.002 Y73.697 E0.00584
G1 X188.889 Y73.845 E0.00582
G1 X188.741 Y73.958 E0.00583
G1 X188.570 Y74.029 E0.00583
G1 X188.445 Y74.045 E0.00395
G1 X188.292 Y74.214 F9000.000
G1 E-3.50000 F3600.00000
G1 F7200.000
G1 X188.201 Y74.029 E-0.11600
G1 X188.029 Y73.958 E-0.08820
G1 X187.882 Y73.844 E-0.08842
G1 X187.769 Y73.697 E-0.08816
G1 X187.698 Y73.526 E-0.08824
G1 X187.673 Y73.341 E-0.08836
G1 X187.698 Y73.157 E-0.08836
G1 X187.769 Y72.985 E-0.08824
G1 X187.882 Y72.838 E-0.08816
G1 X188.029 Y72.725 E-0.08842
G1 X188.201 Y72.654 E-0.08820
G1 X188.385 Y72.629 E-0.08823
G1 X188.570 Y72.654 E-0.08839
G1 X188.741 Y72.725 E-0.08825
G1 X188.889 Y72.838 E-0.08825
G1 X188.982 Y72.960 E-0.07313
G1 E-0.07500 F3600.00000
G1 X82.878 Y82.818 F9000.000
G1 E5.00000 F2400.00000
G1 F1200.000
G1 X82.878 Y87.992 E0.16223
G1 X36.902 Y87.992 E1.44154
G1 X36.902 Y82.818 E0.16223
G1 X82.818 Y82.818 E1.43966
G1 X82.501 Y83.195 F9000.000
G1 F1200.000
G1 X82.501 Y87.615 E0.13859
G1 X37.279 Y87.615 E1.41790
G1 X37.279 Y83.195 E0.13859
G1 X82.441 Y83.195 E1.41601
G1 X82.901 Y83.182 F9000.000
G1 E-3.50000 F3600.00000
G1 F7200.000
G1 X82.482 Y86.195 E-1.42500
G1 E-0.07500 F3600.00000
G1 X36.792 Y75.089 F9000.000
G1 E5.00000 F2400.00000
G1 F1200.000
G1 X83.020 Y75.089 E1.44946
G1 X83.020 Y80.264 E0.16223
G1 X36.792 Y80.264 E1.44946
G1 X36.792 Y75.149 E0.16035
G1 X37.169 Y75.467 F9000.000
G1 F1200.000
G1 X82.643 Y75.467 E1.42581
G1 X82.643 Y79.887 E0.13859
G1 X37.169 Y79.887 E1.42581
G1 X37.169 Y75.527 E0.13670
G1 X36.980 Y75.114 F9000.000
G1 E-3.50000 F3600.00000
G1 F7200.000
G1 X40.169 Y75.523 E-1.42500
G1 E-0.07500 F3600.00000
G1 X33.239 Y73.630 F9000.000
G1 E5.00000 F2400.00000
G1 F1200.000
G1 X33.065 Y73.857 E0.00894
G1 X32.839 Y74.030 E0.00894
G1 X32.576 Y74.139 E0.00894
G1 X32.293 Y74.177 E0.00894
G1 X32.010 Y74.139 E0.00894
G1 X31.747 Y74.030 E0.00894
G1 X31.521 Y73.857 E0.00894
G1 X31.347 Y73.631 E0.00894
G1 X31.238 Y73.367 E0.00894
G1 X31.201 Y73.084 E0.00894
G1 X31.238 Y72.802 E0.00894
G1 X31.347 Y72.538 E0.00894
G1 X31.521 Y72.312 E0.00894
G1 X31.747 Y72.138 E0.00894
G1 X32.010 Y72.029 E0.00894
G1 X32.293 Y71.992 E0.00894
G1 X32.576 Y72.029 E0.00894
G1 X32.839 Y72.138 E0.00894
G1 X33.065 Y72.312 E0.00894
G1 X33.239 Y72.538 E0.00894
G1 X33.348 Y72.802 E0.00894
G1 X33.385 Y73.084 E0.00894
G1 X33.348 Y73.367 E0.00894
G1 X33.262 Y73.575 E0.00706
G1 X32.914 Y73.431 F9000.000
G1 F1200.000
G1 X32.796 Y73.588 E0.00614
G1 X32.649 Y73.701 E0.00583
G1 X32.477 Y73.772 E0.00583
G1 X32.293 Y73.796 E0.00583
G1 X32.109 Y73.772 E0.00583
G1 X31.937 Y73.701 E0.00583
G1 X31.790 Y73.588 E0.00582
G1 X31.676 Y73.440 E0.00583
G1 X31.605 Y73.269 E0.00583
G1 X31.581 Y73.084 E0.00583
G1 X31.605 Y72.900 E0.00583
G1 X31.676 Y72.728 E0.00583
G1 X31.790 Y72.581 E0.00583
G1 X31.937 Y72.468 E0.00582
G1 X32.109 Y72.397 E0.00583
G1 X32.293 Y72.372 E0.00583
G1 X32.477 Y72.397 E0.00583
G1 X32.649 Y72.468 E0.00583
G1 X32.796 Y72.581 E0.00583
G1 X32.910 Y72.728 E0.00583
G1 X32.981 Y72.900 E0.00583
G1 X33.005 Y73.084 E0.00583
G1 X32.981 Y73.269 E0.00583
G1 X32.936 Y73.375 E0.00362
G1 X33.013 Y73.599 F9000.000
G1 E-3.50000 F3600.00000
G1 F7200.000
G1 X32.796 Y73.588 E-0.12087
G1 X32.649 Y73.701 E-0.08828
G1 X32.477 Y73.772 E-0.08828
G1 X32.293 Y73.796 E-0.08828
G1 X32.109 Y73.772 E-0.08828
G1 X31.937 Y73.701 E-0.08828
G1 X31.790 Y73.588 E-0.08824
G1 X31.676 Y73.440 E-0.08827
G1 X31.605 Y73.269 E-0.08826
G1 X31.581 Y73.084 E-0.08833
G1 X31.605 Y72.900 E-0.08834
G1 X31.676 Y72.728 E-0.08826
G1 X31.790 Y72.581 E-0.08827
G1 X31.937 Y72.468 E-0.08824
G1 X32.109 Y72.397 E-0.08828
G1 X32.251 Y72.378 E-0.06822
G1 E-0.07500 F3600.00000
G1 X32.295 Y144.429 F9000.000
G1 E5.00000 F2400.00000
G1 F1200.000
G1 X32.578 Y144.466 E0.00894
G1 X32.841 Y144.576 E0.00894
G1 X33.067 Y144.749 E0.00894
G1 X33.241 Y144.975 E0.00894
G1 X33.350 Y145.239 E0.00894
G1 X33.387 Y145.522 E0.00894
G1 X33.350 Y145.804 E0.00894
G1 X33.241 Y146.068 E0.00894
G1 X33.067 Y146.294 E0.00894
G1 X32.841 Y146.468 E0.00894
G1 X32.578 Y146.577 E0.00894
G1 X32.295 Y146.614 E0.00894
G1 X32.012 Y146.577 E0.00894
G1 X31.749 Y146.468 E0.00894
G1 X31.523 Y146.294 E0.00894
G1 X31.349 Y146.068 E0.00894
G1 X31.240 Y145.804 E0.00894
G1 X31.203 Y145.522 E0.00894
G1 X31.240 Y145.239 E0.00894
G1 X31.349 Y144.975 E0.00894
G1 X31.523 Y144.749 E0.00894
G1 X31.749 Y144.576 E0.00894
G1 X32.012 Y144.466 E0.00894
G1 X32.235 Y144.437 E0.00706
G1 X32.285 Y144.811 F9000.000
G1 F1200.000
G1 X32.479 Y144.834 E0.00614
G1 X32.651 Y144.905 E0.00583
G1 X32.798 Y145.018 E0.00583
G1 X32.911 Y145.166 E0.00583
G1 X32.983 Y145.337 E0.00583
G1 X33.007 Y145.522 E0.00583
G1 X32.983 Y145.706 E0.00583
G1 X32.911 Y145.878 E0.00583
G1 X32.798 Y146.025 E0.00583
G1 X32.651 Y146.138 E0.00583
G1 X32.479 Y146.209 E0.00583
G1 X32.295 Y146.234 E0.00583
G1 X32.111 Y146.209 E0.00583
G1 X31.939 Y146.138 E0.00583
G1 X31.792 Y146.025 E0.00583
G1 X31.678 Y145.878 E0.00583
G1 X31.607 Y145.706 E0.00583
G1 X31.583 Y145.522 E0.00583
G1 X31.607 Y145.337 E0.00583
G1 X31.678 Y145.166 E0.00583
G1 X31.792 Y145.018 E0.00583
G1 X31.939 Y144.905 E0.00582
G1 X32.111 Y144.834 E0.00583
G1 X32.225 Y144.819 E0.00362
G1 X32.381 Y144.640 F9000.000
G1 E-3.50000 F3600.00000
G1 F7200.000
G1 X32.479 Y144.834 E-0.12087
G1 X32.651 Y144.905 E-0.08828
G1 X32.798 Y145.018 E-0.08828
G1 X32.911 Y145.166 E-0.08828
G1 X32.983 Y145.337 E-0.08828
G1 X33.007 Y145.522 E-0.08828
G1 X32.983 Y145.706 E-0.08829
G1 X32.911 Y145.878 E-0.08828
G1 X32.798 Y146.025 E-0.08828
G1 X32.651 Y146.138 E-0.08829
G1 X32.479 Y146.209 E-0.08828
G1 X32.295 Y146.234 E-0.08828
G1 X32.111 Y146.209 E-0.08829
G1 X31.939 Y146.138 E-0.08828
G1 X31.792 Y146.025 E-0.08825
G1 X31.704 Y145.911 E-0.06822
G1 E-0.07500 F3600.00000
G1 X30.587 Y150.913 F9000.000
G1 E5.00000 F2400.00000
G1 F1200.000
G1 X30.587 Y70.538 E2.52008
G1 X30.640 Y70.136 E0.01274
G1 X30.781 Y69.796 E0.01152
G1 X31.004 Y69.504 E0.01152
G1 X31.296 Y69.281 E0.01152
G1 X31.636 Y69.140 E0.01152
G1 X32.038 Y69.087 E0.01274
G1 X188.013 Y69.094 E4.89048
G1 X188.364 Y69.140 E0.01110
G1 X188.704 Y69.281 E0.01152
G1 X188.996 Y69.504 E0.01152
G1 X189.219 Y69.796 E0.01152
G1 X189.360 Y70.136 E0.01152
G1 X189.413 Y70.538 E0.01274
G1 X189.413 Y72.993 E0.07695
G1 X189.331 Y72.795 E0.00671
G1 X189.158 Y72.569 E0.00894
G1 X188.931 Y72.395 E0.00894
G1 X188.668 Y72.286 E0.00894
G1 X188.385 Y72.249 E0.00895
G1 X188.102 Y72.286 E0.00894
G1 X187.839 Y72.395 E0.00894
G1 X187.613 Y72.569 E0.00895
G1 X187.439 Y72.795 E0.00893
G1 X187.330 Y73.058 E0.00894
G1 X187.293 Y73.341 E0.00895
G1 X187.330 Y73.624 E0.00895
G1 X187.439 Y73.887 E0.00894
G1 X187.613 Y74.113 E0.00893
G1 X187.839 Y74.287 E0.00895
G1 X188.102 Y74.396 E0.00894
G1 X188.385 Y74.433 E0.00894
G1 X188.668 Y74.396 E0.00895
G1 X188.931 Y74.287 E0.00894
G1 X189.157 Y74.114 E0.00894
G1 X189.331 Y73.887 E0.00894
G1 X189.413 Y73.690 E0.00671
G1 X189.413 Y144.302 E2.21401
G1 X189.221 Y144.155 E0.00757
G1 X188.958 Y144.046 E0.00893
G1 X188.675 Y144.009 E0.00896
G1 X188.393 Y144.046 E0.00893
G1 X188.129 Y144.155 E0.00893
G1 X187.903 Y144.329 E0.00896
G1 X187.729 Y144.555 E0.00893
G1 X187.620 Y144.819 E0.00893
G1 X187.583 Y145.101 E0.00895
G1 X187.620 Y145.384 E0.00895
G1 X187.729 Y145.647 E0.00893
G1 X187.903 Y145.874 E0.00894
G1 X188.129 Y146.047 E0.00896
G1 X188.393 Y146.156 E0.00893
G1 X188.675 Y146.194 E0.00893
G1 X188.958 Y146.156 E0.00896
G1 X189.221 Y146.047 E0.00893
G1 X189.413 Y145.900 E0.00757
G1 X189.413 Y150.913 E0.15717
G1 X30.647 Y150.913 E4.97799
G1 X30.210 Y151.290 F9000.000
G1 F1200.000
G1 X30.210 Y70.514 E2.53268
G1 X30.273 Y70.037 E0.01507
G1 X30.451 Y69.606 E0.01464
G1 X30.736 Y69.236 E0.01464
G1 X31.106 Y68.951 E0.01464
G1 X31.537 Y68.773 E0.01464
G1 X32.014 Y68.710 E0.01507
G1 X188.038 Y68.717 E4.89203
G1 X188.463 Y68.773 E0.01343
G1 X188.894 Y68.951 E0.01464
G1 X189.264 Y69.236 E0.01464
G1 X189.549 Y69.606 E0.01464
G1 X189.727 Y70.037 E0.01464
G1 X189.790 Y70.514 E0.01507
G1 X189.790 Y151.290 E2.53268
G1 X30.270 Y151.290 E5.00164
G1 X30.354 Y150.917 F9000.000
G1 X30.700 Y150.037
G1 F1200.000
G1 X31.293 Y150.630 E0.02630
G1 X31.827 Y150.630 E0.01673
G1 X30.870 Y149.673 E0.04243
G1 X30.870 Y149.140 E0.01673
G1 X32.360 Y150.630 E0.06609
G1 X32.893 Y150.630 E0.01673
G1 X30.870 Y148.607 E0.08974
G1 X30.870 Y148.073 E0.01673
G1 X33.427 Y150.630 E0.11340
G1 X33.960 Y150.630 E0.01673
G1 X30.870 Y147.540 E0.13706
G1 X30.870 Y147.007 E0.01673
G1 X34.493 Y150.630 E0.16071
G1 X35.027 Y150.630 E0.01673
G1 X30.870 Y146.473 E0.18437
G1 X30.870 Y146.227 E0.00772
G1 X31.103 Y146.212 E0.00733
G1 X31.321 Y146.496 E0.01122
G1 X31.606 Y146.715 E0.01128
G1 X31.672 Y146.742 E0.00223
G1 X35.560 Y150.630 E0.17245
G1 X36.094 Y150.630 E0.01673
G1 X32.355 Y146.891 E0.16583
G1 X32.651 Y146.852 E0.00938
G1 X32.791 Y146.794 E0.00475
G1 X36.627 Y150.630 E0.17013
G1 X37.160 Y150.630 E0.01673
G1 X33.131 Y146.601 E0.17869
G1 X33.269 Y146.496 E0.00544
G1 X33.395 Y146.331 E0.00649
G1 X37.694 Y150.630 E0.19066
G1 X38.227 Y150.630 E0.01673
G1 X33.581 Y145.984 E0.20605
G1 X33.625 Y145.878 E0.00361
G1 X33.670 Y145.540 E0.01071
G1 X38.761 Y150.630 E0.22578
G1 X39.294 Y150.630 E0.01673
G1 X30.870 Y142.206 E0.37363
G1 X30.870 Y141.673 E0.01673
G1 X39.827 Y150.630 E0.39728
G1 X40.361 Y150.630 E0.01673
G1 X30.870 Y141.139 E0.42094
G1 X30.870 Y140.606 E0.01673
G1 X40.894 Y150.630 E0.44460
G1 X41.428 Y150.630 E0.01673
G1 X30.870 Y140.072 E0.46825
G1 X30.870 Y139.539 E0.01673
G1 X41.961 Y150.630 E0.49191
G1 X42.494 Y150.630 E0.01673
G1 X30.870 Y139.006 E0.51557
G1 X30.870 Y138.472 E0.01673
G1 X43.028 Y150.630 E0.53922
G1 X43.561 Y150.630 E0.01673
G1 X30.870 Y137.939 E0.56288
G1 X30.870 Y137.405 E0.01673
G1 X44.095 Y150.630 E0.58654
G1 X44.628 Y150.630 E0.01673
G1 X30.870 Y136.872 E0.61020
G1 X30.870 Y136.339 E0.01673
G1 X45.161 Y150.630 E0.63385
G1 X45.695 Y150.630 E0.01673
G1 X30.870 Y135.805 E0.65751
G1 X30.870 Y135.272 E0.01673
G1 X46.228 Y150.630 E0.68117
G1 X46.762 Y150.630 E0.01673
G1 X30.870 Y134.738 E0.70482
G1 X30.870 Y134.205 E0.01673
G1 X47.295 Y150.630 E0.72848
G1 X47.828 Y150.630 E0.01673
G1 X30.870 Y133.672 E0.75214
G1 X30.870 Y133.138 E0.01673
G1 X48.362 Y150.630 E0.77579
G1 X48.895 Y150.630 E0.01673
G1 X30.870 Y132.605 E0.79945
G1 X30.870 Y132.072 E0.01673
G1 X49.428 Y150.630 E0.82311
G1 X49.962 Y150.630 E0.01673
G1 X30.870 Y131.538 E0.84677
G1 X30.870 Y131.005 E0.01673
G1 X50.495 Y150.630 E0.87042
G1 X51.029 Y150.630 E0.01673
G1 X30.870 Y130.471 E0.89408
G1 X30.870 Y129.938 E0.01673
G1 X51.562 Y150.630 E0.91774
G1 X52.095 Y150.630 E0.01673
G1 X30.870 Y129.405 E0.94139
G1 X30.870 Y128.871 E0.01673
G1 X52.629 Y150.630 E0.96505
G1 X53.162 Y150.630 E0.01673
G1 X30.870 Y128.338 E0.98871
G1 X30.870 Y127.804 E0.01673
G1 X53.696 Y150.630 E1.01236
G1 X54.229 Y150.630 E0.01673
G1 X30.870 Y127.271 E1.03602
G1 X30.870 Y126.738 E0.01673
G1 X54.762 Y150.630 E1.05968
G1 X55.296 Y150.630 E0.01673
G1 X30.870 Y126.204 E1.08334
G1 X30.870 Y125.671 E0.01673
G1 X55.829 Y150.630 E1.10699
G1 X56.363 Y150.630 E0.01673
G1 X30.870 Y125.137 E1.13065
G1 X30.870 Y124.604 E0.01673
G1 X56.896 Y150.630 E1.15431
G1 X57.429 Y150.630 E0.01673
G1 X30.870 Y124.071 E1.17796
G1 X30.870 Y123.537 E0.01673
G1 X57.963 Y150.630 E1.20162
G1 X58.496 Y150.630 E0.01673
G1 X30.870 Y123.004 E1.22528
G1 X30.870 Y122.470 E0.01673
G1 X59.030 Y150.630 E1.24893
G1 X59.563 Y150.630 E0.01673
G1 X30.870 Y121.937 E1.27259
G1 X30.870 Y121.404 E0.01673
G1 X60.096 Y150.630 E1.29625
G1 X60.630 Y150.630 E0.01673
G1 X30.870 Y120.870 E1.31990
G1 X30.870 Y120.337 E0.01673
G1 X61.163 Y150.630 E1.34356
G1 X61.697 Y150.630 E0.01673
G1 X30.870 Y119.803 E1.36722
G1 X30.870 Y119.270 E0.01673
G1 X62.230 Y150.630 E1.39088
G1 X62.763 Y150.630 E0.01673
G1 X30.870 Y118.737 E1.41453
G1 X30.870 Y118.203 E0.01673
